X:1
T:title
M:4/4
Q:120
L:1/8
R:Reel
K:C
 _g2 ^d'4 _F ^c' |  ^c3f2G2 ^e |  ^B4 ^A3 ^e' |  _Ee4 _c ^gd |  ^d2 _d'4 _F ^E |  _d'3ABc'2g' | C ^C2e'2 _CEe' |  ^f ^c' ^e'2c'3d | 